images/icons/tatami.svg

<svg height="32pt" viewBox="0 0 32 32" width="32pt" xmlns="http://www.w3.org/2000/svg"><g fill="#fff"><path d="m31.375 0h-30.75c-.34375 0-.625.28125-.625.625v30.75c0 .34375.28125.625.625.625h30.75c.34375 0 .625-.28125.625-.625v-30.75c0-.34375-.28125-.625-.625-.625zm-30.125 1.25h29.5v9h-19.25v-4c0-.34375-.28125-.625-.625-.625s-.625.28125-.625.625v14.25h-9zm19.25 10.25v9h-9v-9zm-19.25 19.25v-9h19.25v9zm29.5 0h-9v-19.25h9zm0 0"/><path d="m10.875 4.0625c.34375 0 .625-.28125.625-.625s-.28125-.625-.625-.625-.625.28125-.625.625.28125.625.625.625zm0 0"/></g></svg>

<?xml version="1.0" encoding="UTF-8"?>
<svg xmlns="http://www.w3.org/2000/svg" xmlns:xlink="http://www.w3.org/1999/xlink" width="32pt" height="32pt" viewBox="0 0 32 32" version="1.1">
<g id="surface1">
<path style=" stroke:none;fill-rule:nonzero;fill:rgb(255%,255%,255%);fill-opacity:1;" d="M 31.375 0 L 0.625 0 C 0.28125 0 0 0.28125 0 0.625 L 0 31.375 C 0 31.71875 0.28125 32 0.625 32 L 31.375 32 C 31.71875 32 32 31.71875 32 31.375 L 32 0.625 C 32 0.28125 31.71875 0 31.375 0 Z M 1.25 1.25 L 30.75 1.25 L 30.75 10.25 L 11.5 10.25 L 11.5 6.25 C 11.5 5.90625 11.21875 5.625 10.875 5.625 C 10.53125 5.625 10.25 5.90625 10.25 6.25 L 10.25 20.5 L 1.25 20.5 Z M 20.5 11.5 L 20.5 20.5 L 11.5 20.5 L 11.5 11.5 Z M 1.25 30.75 L 1.25 21.75 L 20.5 21.75 L 20.5 30.75 Z M 30.75 30.75 L 21.75 30.75 L 21.75 11.5 L 30.75 11.5 Z M 30.75 30.75 "/>
<path style=" stroke:none;fill-rule:nonzero;fill:rgb(255%,255%,255%);fill-opacity:1;" d="M 10.875 4.0625 C 11.21875 4.0625 11.5 3.78125 11.5 3.4375 C 11.5 3.09375 11.21875 2.8125 10.875 2.8125 C 10.53125 2.8125 10.25 3.09375 10.25 3.4375 C 10.25 3.78125 10.53125 4.0625 10.875 4.0625 Z M 10.875 4.0625 "/>
</g>
</svg>
